X: 1
T: ha-Noded  [F]
T: the Wanderer
M: 2/4
L: 1/8
K: F
C/ | "F"CF EF | G2 A>A | AF EF | "C7"G7/2 ::\
G/ | "C7"Gc Bc | "Bb"dc "C7"c>c | "Bb"BA GF | "F"CF "C7"G> :|


